icon-themes/sifr_svg/cmd/lc_zoomout.svg

<svg viewBox="0 0 24 24" xmlns="http://www.w3.org/2000/svg"><path d="m4.59375 3c-.8836 0-1.59375.73199-1.59375 1.625v14.75c0 .89301.71015 1.625 1.59375 1.625h14.8125c.8836 0 1.59375-.73199 1.59375-1.625v-14.75c0-.89301-.71015-1.625-1.59375-1.625zm3.40625 8h8v2h-8z" fill="#555753"/></svg>

<svg xmlns="http://www.w3.org/2000/svg" viewBox="0 0 24 24">
 <path
     style="fill:#555753"
     d="M 4.59375 3 C 3.71015 3 3 3.73199 3 4.625 L 3 19.375 C 3 20.26801 3.71015 21 4.59375 21 L 19.40625 21 C 20.28985 21 21 20.26801 21 19.375 L 21 4.625 C 21 3.73199 20.28985 3 19.40625 3 L 4.59375 3 z M 8 11 L 16 11 L 16 13 L 8 13 L 8 11 z "
     />
 </svg>
